X:40
T:Drowsy Maggie setting 2 (r)
B:NFID.162a
040dr_magg2
S:F&MB
N:First notes of measures 1,2,3,5,6,7,9,11, and 13 are ornamented
by rolls. I have omitted most of them here as they tend to clog
up the playback.
L:1/8
M:C
R:reel
Q:360
K:Em % dor
~E2BE ^cEBE|E2B^c AGFD|E2BE ^cEBA|FAB^c dAFD|
E2BE ^cEBE|E2B^d AGFD|E2BE ^cEBA|FAB^c dAFA||
~d2fd d^cBe|(3^cBA eA ceAc|d2fe d^cBd|(3^cde f^g aece|
d2fe d^cBd|(3^cBA eA cdeg|f2e^c dcBb|^gebg ae^cA||

%%%

